symbols/web/report/materialsymbolsoutlined/report_wght300fill1_20px.svg

<svg xmlns="http://www.w3.org/2000/svg" height="20" width="20"><path d="m7.042 17.083-4.125-4.125V7.042l4.125-4.125h5.916l4.125 4.125v5.916l-4.125 4.125ZM10 13.938q.292 0 .5-.209.208-.208.208-.5 0-.291-.208-.5-.208-.208-.5-.208-.292 0-.5.208-.208.209-.208.5 0 .292.208.5.208.209.5.209Zm-.667-2.959h1.334V6.021H9.333Z"/></svg>

<svg xmlns="http://www.w3.org/2000/svg" height="20" width="20"><path d="M7.042 17.083 2.917 12.958V7.042L7.042 2.917H12.958L17.083 7.042V12.958L12.958 17.083ZM10 13.938Q10.292 13.938 10.5 13.729Q10.708 13.521 10.708 13.229Q10.708 12.938 10.5 12.729Q10.292 12.521 10 12.521Q9.708 12.521 9.5 12.729Q9.292 12.938 9.292 13.229Q9.292 13.521 9.5 13.729Q9.708 13.938 10 13.938ZM9.333 10.979H10.667V6.021H9.333Z"/></svg>
